lib/icons/delete.svg

<svg width="16" height="16" viewBox="0 0 16 16" fill="none" xmlns="http://www.w3.org/2000/svg">
<path fill-rule="evenodd" clip-rule="evenodd" d="M4.18772 0.5C4.18772 0.223858 4.41158 0 4.68772 0H11.3081C11.5842 0 11.8081 0.223858 11.8081 0.5V2.54534C11.8081 2.72129 11.7172 2.87601 11.5798 2.96512L15.4958 2.96512C15.7719 2.96512 15.9958 3.18898 15.9958 3.46512C15.9958 3.74126 15.7719 3.96512 15.4958 3.96512L0.5 3.96512C0.223858 3.96512 0 3.74126 0 3.46512C0 3.18898 0.223858 2.96512 0.5 2.96512L4.41598 2.96512C4.2786 2.87601 4.18772 2.72129 4.18772 2.54534V0.5ZM10.8081 2.54534C10.8081 2.72129 10.8989 2.87601 11.0363 2.96512L4.95947 2.96512C5.09685 2.87601 5.18772 2.72129 5.18772 2.54534V1H10.8081V2.54534ZM2.81977 4.48625C2.81977 4.21011 2.59591 3.98625 2.31977 3.98625C2.04363 3.98625 1.81977 4.21011 1.81977 4.48625V14.4987C1.81977 15.3271 2.49134 15.9987 3.31977 15.9987H12.5836C13.4121 15.9987 14.0836 15.3271 14.0836 14.4987V4.48625C14.0836 4.21011 13.8598 3.98625 13.5836 3.98625C13.3075 3.98625 13.0836 4.21011 13.0836 4.48625V14.4987C13.0836 14.7748 12.8598 14.9987 12.5836 14.9987H3.31977C3.04363 14.9987 2.81977 14.7748 2.81977 14.4987V4.48625Z" fill="#7A859E"/>
</svg>

<svg width="16" height="16" fill="none" xmlns="http://www.w3.org/2000/svg"><path fill-rule="evenodd" clip-rule="evenodd" d="M4.188.5a.5.5 0 0 1 .5-.5h6.62a.5.5 0 0 1 .5.5v2.045a.5.5 0 0 1-.228.42h3.916a.5.5 0 0 1 0 1H.5a.5.5 0 0 1 0-1h3.916a.5.5 0 0 1-.228-.42V.5Zm6.62 2.045a.5.5 0 0 0 .228.42H4.96a.5.5 0 0 0 .229-.42V1h5.62v1.545ZM2.82 4.486a.5.5 0 0 0-1 0V14.5a1.5 1.5 0 0 0 1.5 1.5h9.264a1.5 1.5 0 0 0 1.5-1.5V4.486a.5.5 0 1 0-1 0V14.5a.5.5 0 0 1-.5.5H3.32a.5.5 0 0 1-.5-.5V4.486Z" fill="#7A859E"/></svg>
